X:1
T:Nocturne, Op. 9, No. 2
T:Nocturne, Op. 9, No. 2
T:Frederic Chopin (1810-1849)
T:for Flute and Piano
C:Frederic Chopin (1810-1849)
%%score 1 { 2 | 3 }
L:1/8
Q:3/8=40
M:12/8
K:Eb
V:1 treble nm="Flute" snm="Fl."
V:2 treble nm="Piano" snm="Pno."
V:3 bass 
V:1
 z3 z3 z3 z2 B | g3- g(fg) f3 e2 B | g2 (5:4:5(c/4_d/4c/4=B/4c/4) c'2 g b3 a2 g | f3 (g2 d) e3 c3 | %4
!<(! (Bd'c') (b/a/g/a/)(c/!<)!d/) e3 z2!p!!p! B | g3 (f/g/Pf/=e/f/g/) f ((_e2 e/)f/)(Pe/d/e/f/ | %6
 g/)(!>!=B/c/)((!>!_d/c/))(!>!f/ =e/)(!>!a/g/)(!>!_d'/c'/)g/ b3 a2 g | (Tf3{=ef} .g)((gd)) _e3 c3 | %8
 (Bd'c') (b/a/g/a/)(c/d/) e3 z!p! ((de | f3 (g2 f) f3 c3)) | %10
 .e(.e.e) !tenuto!e(d/e/f/>e/) (e3 B3) | b3 (=a2 g) f3 d3 | %12
 e3 !tenuto!d!tenuto!c!tenuto!d (!tenuto!B.=B.B .c.c.d) | %13
[Q:3/8=35]{GBe} g-!fermata!g[Q:3/8=40] (=A/B/) (_c/B/^c/d/)(g/>f/) f2 (e- e/f/)(Pe/d/e/f/ | %14
!<(! g/)(((=B/c/)(_d/c/)(f/ =e/)(a/g/)))(((_d'/c'/)g/!<)! b3 a2 g)) | (Tf3{=ef} .g)(gd) _e3 c3 | %16
 (Bd'_d') (c'/4=b/4_b/4=a/4_a/4f/4d/4)_c/4(5:4:5(B/4d/4g/4)f/4e/4[Q:3/8=35] e3[Q:3/8=40] z (de) | %17
 f3 (g2 f) f3 c3 | (4:3:4eeee e(d/e/f/>e/) e3 B3 | b3 ((=a2 g)) f3 d3 | %20
 e3 !tenuto!d!tenuto!c!tenuto!d ((!tenuto!B.=B.B .c.c.d)) | %21
[Q:3/8=35]{GBe} g-!fermata!g[Q:3/8=40] (=A/B/) (_c/B/^c/d/)(g/>f/) f2 (e- e/f/)Pe/d/e/f/ | %22
!<(! g/(((=B/c/)(_d/c/)(f/ =e/)(a/g/)))(((_d'/c'/)g/!<)! b3 a2 g)) | %23
 ((((Tf3{=ef} .g))))((((gd)))) _e3 c3 | %24
 B/(d'._d'/.c'/>.=b/ ._b/.=a/(5:4:5_a/4=A/4B/4=B/4c/4(5:4:5_d/4=d/4g/4f/4e/4) e6 | (e3 f)ef g6 | %26
 (e3- e/f/e/f/e/f/) g2 (5:4:5((e/4f/4e/4d/4e/4) e')d'c' | %27
 (b2 =a _acd) (ef/Pe/d/e/){e} g'(.f'/.e'/.d'/.c'/) | (=b_b=a) (a/_a/)(a/g/)(g/>f/) e6 | %29
 (e3- (3e/f/e/(3f/e/f/!tenuto!e/!tenuto!f/) g6 | e(A/B/PA/G/ A/)(=B/e/a/e'/>)f'/ g'e' e'2 d'c' | %31
 =b_b=a _agd e e'2- e'fc' | =b6 !fermata!_b6 | %33
 (=b/4_b/4c'/4=a/4)(=b/4_b/4c'/4a/4)(=b/4_b/4c'/4a/4) (=b/4_b/4c'/4a/4)(=b/4_b/4c'/4a/4)(=b/4_b/4c'/4a/4) (=b/4_b/4c'/4a/4)[Q:3/8=35](=b/4_b/4c'/4a/4)[Q:3/8=30](=b/4_b/4d'/4c'/4)[Q:3/8=25] (b/4a/4_a/4g/4)[Q:3/8=20] (f/4=d/4e/4c/4)[Q:3/8=15] (B/4_A/4c/4d/4) | %34
[Q:3/8=40] e6 b6 | !fermata!e'6 z2 z4 |] %36
V:2
 z12 |!p! z ([G,E][B,EG]) z ([A,D][=B,DA]) z (([G,E][_B,EG])) z (([G,E][B,EG])) | %2
 z [G,=E][B,EG] z [G,E][CEB] z [F,_D][B,DE] z [F,C][A,CF] | %3
 z [F,D][DA] z [G,F][DFG] z [G,E][CEG] z [_G,E][CE_G] | %4
 z [F,E][B,EA] z [F,D][B,A] z [G,E][B,EG] z [G,E][B,EG] | %5
 z [G,E][B,EG] z [A,D][_CDA] z [G,E][B,EG] z [G,E][B,EG] | %6
 z [G,=E][B,EG] z [G,E][CEB] z [F,_D][B,DE] z [F,C][A,CF] | %7
 z [F,D][B,DA] z [G,F][DFG] z [G,E][CEG] z [_G,E][CE_G] | %8
 z [F,E][B,EA] z [F,D][B,A] z [G,E][B,EG] z [G,E][B,EG] | %9
 z [F,D][B,DF] z [F,D][B,DF] z [F,C][CF] z [F,C][CF] | %10
 z [E,C][A,CE] z [E,_C][A,CE] z [G,E][B,EG] z [G,E][B,EG] | %11
 z [=E,_D][B,DG] z [E,C][B,CG] z [F,E][CE=A] z [G,=D][B,DB] | %12
 G[G,E][CEG] =A,[E=A][EA] !tenuto![FB](.[E=B].[=EB] .[E_Bc].[=Ac].[_Ad]) | %13
 z [G,E][B,EG] z [A,D][B,DA] z [G,E][B,EG] z [G,E][B,EG] | %14
 z [G,=E][B,EG] z [G,E][CEB] z [F,_D][B,DE] z [F,C][A,CF] | %15
 z [F,D][B,DA] z [G,F][DFG] z [G,E][CEG] z [_G,E][CE_G] | %16
 z [F,E][B,EA] z [F,D][B,A] z [G,E][B,EG] z [G,E][B,EG] | %17
 z [F,D][B,DF] z [F,D][B,DF] z [F,C][CF] z [F,C][CF] | %18
 z [E,C][A,CE] z [E,_C][A,CE] z [G,E][B,EG] z [G,E][B,EG] | %19
 z [=E,_D][B,DG] z [E,C][B,CG] z [F,E][CE=A] z [G,=D][B,DB] | %20
 G[G,E][CEG] =A,[E=A][EA] !tenuto![FB](.[E=B].[=EB] .[E_Bc].[=Ac].[_Ad]) | %21
 z [G,E][B,EG] z [A,D][B,DA] z [G,E][B,EG] z [G,E][B,EG] | %22
 z [G,=E][B,EG] z [G,E][CEB] z [F,_D][B,DE] z [F,C][A,CF] | %23
 z [F,D][B,DA] z [G,F][DFG] z [G,E][CEG] z [_G,E][CE_G] | %24
 z [F,E][B,EA] z [F,D][B,A] z [G,E][B,EG] z [G,E][B,EG] | %25
 z [A,_CE][CEA] z [A,CE][CEA] z [G,E][B,EG] z [G,E][B,EG] | %26
 z [A,_CE][CEA] z [A,CE][CEA] z [G,B,E][B,EG] z [G,E][B,EG] | %27
 z [F,D][B,A] z [F,D][B,A] z [F,D][B,A] z [F,E][CEF] | %28
 (z [F,E][B,EA]) z [F,D][B,DA] z [G,E][B,EG] z [G,E][B,EG] | e6 g6 | e6 g6 | %31
 =b_b=a _agd e [ee']2- [ee'][Ff][cc'] | =b6 !fermata!_b6 | z12 | [Ge]Bg [Ge]Bg [Ge]Bg [Ge]Bg | %35
 [Ge]3[K:treble] [ge']3[K:bass] !fermata![G,E]6 |] %36
V:3
 z12 | E,,2 z E,2 z E,,2 z D,,2 z | C,,2 z C,2 z F,,2 z F,,2 z | B,,2 z =B,,2 z C,2 z =A,,2 z | %4
 B,,2 z B,,,2 z E,,2 z E,2 z | [E,,E,]2 z [E,,E,]2 z [E,,E,]2 z [D,,D,]2 z | %6
 [C,,C,]2 z [C,,C,]2 z F,,2 z F,,2 z | [B,,,B,,]2 z [=B,,,=B,,]2 z [C,,C,]2 z [=A,,,=A,,]2 z | %8
 [B,,,B,,]2 z [B,,,B,,]2 z [E,,E,]2 z E,2 z | B,,3 B,,3 =A,,3 A,,3 | %10
 A,,2 z [A,,,A,,]2 z [E,,E,]2 z [E,,E,]2 z | [=E,,=E,]2 z [E,,E,]2 z [F,,F,]2 z [G,,G,]2 z | %12
 [C,,C,]2 z [F,,F,]2 z !tenuto![B,D](.=A,.^G, .=G,.[F,_E].[B,F]) | %13
 [E,,E,]2 z [E,,E,]2 z [E,,E,]2 z [D,,D,]2 z | [C,,C,]2 z [C,,C,]2 z F,,2 z F,,2 z | %15
 [B,,,B,,]2 z [=B,,,=B,,]2 z [C,,C,]2 z [=A,,,=A,,]2 z | %16
 [B,,,B,,]2 z [B,,,B,,]2 z [E,,E,]2 z E,2 z | B,,3 B,,3 =A,,3 A,,3 | %18
 A,,2 z [A,,,A,,]2 z [E,,E,]2 z [E,,E,]2 z | [=E,,=E,]2 z [E,,E,]2 z [F,,F,]2 z [G,,G,]2 z | %20
 [C,,C,]2 z [F,,F,]2 z !tenuto![B,D](.=A,.^G, .=G,.[F,_E].[B,F]) | %21
 [E,,E,]2 z [E,,E,]2 z [E,,E,]2 z [D,,D,]2 z | [C,,C,]2 z [C,,C,]2 z F,,2 z F,,2 z | %23
 [B,,,B,,]2 z [=B,,,=B,,]2 z [C,,C,]2 z [=A,,,=A,,]2 z | %24
 [B,,,B,,]2 z [B,,,B,,]2 z [E,,E,]2 z E,2 z | [E,,E,]2 z [E,,E,]2 z [E,,E,]2 z [E,,E,]3 | %26
 [E,,E,]2 z [E,,E,]2 z [E,,E,]2 z [E,,E,]2 z | [E,,E,]2 z [E,,E,]2 z [E,,E,]2 z [=A,,,=A,,]2 z | %28
 [B,,,B,,]2 z [B,,,B,,]2 z [E,,E,]2 z E,2 z | %29
 [A,,,A,,][E,A,_C][A,CE] [CEA][A,CE][E,A,_C] [E,,E,][G,E][B,EG] E,[G,E][B,EG] | %30
 [A,,,A,,][E,A,][A,_CE] [CEA][A,CE][E,A,C] [E,,G,][G,E][B,EG] [=A,,=A,][G,E][G,E] | %31
 [B,,,B,,][F,B,E][B,EA] [=B,,,=B,,][G,F][DFG] [C,,C,][G,E][CG] [=A,,,=A,,][F,CE][CEF] | %32
 (8:6:8B,,,B,,F,A, DB,FA !fermata!d6 | z12 | E,,B,B,, E,B,B,, E,,B,B,, E,B,-[B,,B,-] | %35
 [E,B,]3 [EB]3 !fermata![E,,B,,]6 |] %36

